app/images/logo/ruso.svg

<svg width="52" height="11" viewBox="0 0 52 11" fill="none" xmlns="http://www.w3.org/2000/svg">
<g clip-path="url(#clip0_52_2784)">
<path d="M13.4243 6.35301V0.251953H15.6153V6.27665C15.6153 7.69226 16.4376 8.66538 18.005 8.66538C19.5724 8.66538 20.3781 7.69129 20.3781 6.27665V0.251953H22.5847V6.33832C22.5847 8.86411 21.0927 10.5832 18.005 10.5832C14.9153 10.5832 13.4243 8.84845 13.4243 6.35301Z" fill="#7A7D80"/>
<path d="M27.791 8.96925L28.9619 7.3265C29.6775 8.07249 30.7877 8.69513 32.1877 8.69513C33.3752 8.69513 33.9528 8.14788 33.9528 7.56929C33.9528 5.77383 28.1102 7.00637 28.1102 3.18734C28.1102 1.49859 29.5708 0.0986328 31.9595 0.0986328C33.5729 0.0986328 34.9112 0.58519 35.9156 1.51425L34.7134 3.0963C33.893 2.33562 32.7966 1.98612 31.7618 1.98612C30.8337 1.98612 30.3168 2.39632 30.3168 3.00525C30.3168 4.61764 36.1437 3.53782 36.1437 7.3265C36.1437 9.18267 34.8202 10.5826 32.0819 10.5826C30.1347 10.5826 28.7348 9.92768 27.791 8.96925Z" fill="#7A7D80"/>
<path d="M41.2124 5.29241C41.2124 2.2086 43.467 0 46.5508 0C49.6493 0 51.9039 2.2086 51.9039 5.29241C51.9039 8.37525 49.6493 10.5838 46.5508 10.5838C43.467 10.5838 41.2124 8.37525 41.2124 5.29241ZM49.664 5.29241C49.664 3.37555 48.4373 1.9335 46.5508 1.9335C44.6643 1.9335 43.4523 3.37555 43.4523 5.29241C43.4523 7.19459 44.6643 8.65132 46.5508 8.65132C48.4373 8.65132 49.664 7.19459 49.664 5.29241Z" fill="#7A7D80"/>
<path d="M5.93463 6.5351C7.03012 6.27665 8.15693 5.31822 8.15693 3.52275C8.15693 1.63624 6.86369 0.251953 4.74809 0.251953H0V2.15315H2.16063H2.32118H4.42894C5.29633 2.15315 5.95029 2.67005 5.95029 3.52275C5.95029 4.37447 5.29535 4.89236 4.42894 4.89236H2.32118H2.16063H0.000978824V10.4001H2.16161V6.79453H3.74463L5.73687 10.4011H8.21763L5.93463 6.5351Z" fill="#7A7D80"/>
</g>
<defs>
<clipPath id="clip0_52_2784">
<rect width="52" height="11" fill="white"/>
</clipPath>
</defs>
</svg>

<svg width="52" height="11" fill="none" xmlns="http://www.w3.org/2000/svg"><g clip-path="url(#clip0_52_2784)" fill="#7A7D80"><path d="M13.424 6.353V.252h2.191v6.025c0 1.415.823 2.388 2.39 2.388 1.567 0 2.373-.974 2.373-2.388V.252h2.207v6.086c0 2.526-1.492 4.245-4.58 4.245-3.09 0-4.58-1.735-4.58-4.23zM27.791 8.97l1.17-1.644a4.448 4.448 0 003.227 1.37c1.187 0 1.765-.548 1.765-1.127 0-1.795-5.843-.563-5.843-4.382C28.11 1.5 29.57.1 31.96.1c1.613 0 2.951.486 3.956 1.415l-1.203 1.582c-.82-.76-1.916-1.11-2.951-1.11-.928 0-1.445.41-1.445 1.02 0 1.612 5.827.532 5.827 4.32 0 1.857-1.324 3.257-4.062 3.257-1.947 0-3.347-.655-4.291-1.614zm13.421-3.678C41.212 2.21 43.467 0 46.551 0c3.098 0 5.353 2.209 5.353 5.292 0 3.083-2.255 5.292-5.353 5.292-3.084 0-5.339-2.209-5.339-5.292zm8.452 0c0-1.916-1.227-3.358-3.113-3.358-1.887 0-3.099 1.442-3.099 3.358 0 1.903 1.212 3.36 3.099 3.36 1.886 0 3.113-1.457 3.113-3.36zM5.935 6.535c1.095-.258 2.222-1.217 2.222-3.012 0-1.887-1.293-3.271-3.409-3.271H0v1.901h4.429c.867 0 1.521.517 1.521 1.37 0 .851-.655 1.37-1.521 1.37H0V10.4h2.16V6.795h1.584L5.737 10.4h2.48L5.936 6.535z"/></g><defs><clipPath id="clip0_52_2784"><path fill="#fff" d="M0 0h52v11H0z"/></clipPath></defs></svg>
